src/16/panel/btsync-gui-2.svg

<svg xmlns="http://www.w3.org/2000/svg" width="16" height="16" version="1.1">
 <defs>
  <style id="current-color-scheme" type="text/css">
   .ColorScheme-Text { color:#bebebe; } .ColorScheme-Highlight { color:#5294e2; }
  </style>
 </defs>
 <path style="fill:currentColor" class="ColorScheme-Text" d="m 8.0000001,0.99999995 c -3.8657501,-3e-8 -7,3.13424995 -7,7.00000005 C 1,11.86575 4.1342499,15 8,15 11.86575,15 15.000001,11.86575 15,8 15,4.1342499 11.86575,0.99999995 8.0000001,0.99999995 Z M 8.0000001,3 c 2.4190029,-10e-8 4.4371699,1.7176959 4.9003909,3.9999999 L 14,6.9999999 12.000001,10 10,7 l 0.816406,-2e-7 C 10.403282,5.8371951 9.3045107,4.9999999 8.0000001,4.9999999 7.28649,5.0012567 6.5967878,5.256779 6.0546876,5.720703 L 4.263672,4.6874999 C 5.2106481,3.6167879 6.5706011,3.0025697 8.0000001,3 Z M 4,5.9999999 l 2.0000001,3 -0.8164064,5e-7 C 5.5967179,10.162805 6.6954893,11 8.0000002,11 8.7135095,10.998744 9.4032125,10.743221 9.9453134,10.279297 L 11.736328,11.3125 C 10.789352,12.383212 9.4293993,12.9974 8.0000001,13 5.5809968,13.000001 3.5628306,11.282304 3.0996092,9.0000007 l -1.099609,-8e-7 1.9999998,-3 z"/>
</svg>

<svg xmlns="http://www.w3.org/2000/svg" width="16" height="16"><defs><style id="current-color-scheme" type="text/css"></style></defs><path d="M8 1a7 7 0 1 0 0 14A7 7 0 0 0 8 1zm0 2a5.002 5.002 0 0 1 4.9 4H14l-2 3-2-3h.816A2.99 2.99 0 0 0 8 5a3 3 0 0 0-1.945.72L4.264 4.688A5 5 0 0 1 8 3zM4 6l2 3h-.816A2.99 2.99 0 0 0 8 11a3 3 0 0 0 1.945-.72l1.791 1.033A5 5 0 0 1 8 13a5.002 5.002 0 0 1-4.9-4H2l2-3z" fill="currentColor" color="#bebebe"/></svg>
